X: 883
T: Mayor Harrison's fedora
C: anon.
O: Ireland
B: Francis O'Neill: "The Dance Music of Ireland" (1907) no. 799
R: Reel
Z: Transcribed by Frank Nordberg - http://www.musicaviva.com
F: http://www.musicaviva.com/abc/tunes/ireland/oneill-1001/oneill-1001-079
9.abc
M: C|
L: 1/8
K: Em
(EF)|GE(EG B2)AF|(GFG)(A BA)GE|FDD(F A2)FA|d(cdB) AGFA|\
GE (3(EFG) B2AF|(GFG)(A B2)Bc|de (3(dcB) AGF(A|(3GFE) (FD) E2||
(Ac)|Bcd(f e2)ef|ede(f ed)BA|GAB(c d2)de|(3dcB (gf) edBA|\
Bcd(f ed)e(f|ga)g(e dcB)c|d(e (3dcB A)GFA|(3GFE (FD)E2|]
W:
W:
W: From Musica Viva - http://www.musicaviva.com
W: the Internet center for free sheet music downloads.
